X:155
T: ICH BIN VOM BERG DER HIRTENKNAB
N: B0185
O: Europa, Mitteleuropa, Deutschland
R: Natur - Lied, Berg
M: 3/4
L: 1/4
K: G
D | G2B | d2B | d2B | A2
B | G2B | d2B | d2B | A2
A | BAG | d2A | BAG | D2
G | BAG | dcA | BAG | d2
D | G2B | d2B | A3 | G2

@@@ Tune index: 1958
